X: 872
T: Santa Claus
C:Bill Monroe (Kenny Baker's break)
B: jims roots
M:C
L:1/8
Q: 1/4=100
K:G
V:1 
"G"{(_B}y=B4)d3A | BdBA GBAG | "C"EFGB AGEG | "G"B8 | {(_B}y=B4)d3A |
BdBA G4 | "A"F2AB AGFG | "D"ABAF (3EFE D2 | "G"{(_B}y=B4)d3A | BdBA GBAG |
"C"EFGB AGEG | "B7"B8 | "C"EFGB AGED | "G"BdBG "E"E2eB | "A"dedB "D7"AGED | "G"EG-G4 ef ||
"G"gfef gfef | gfed- dged | "C"BAGB AGEG | "G"B6 ef | g2ef g2ef |
gfge dcB^c | "A"Aa2e fafc | "D"d6 ef | "G"gfef gfef | gfed- dged |
"C"BAGB AGEG | "B7"{(_B}y=B8) | "C"EFGB AGEG | "G"BdBG "E"E2eB | "A"dedB "D7"AGED | "G"EG-G6 |]
% abcbook-tune_id 6298c287b23c7af66cec52d6


% abcbook-boost 0
% abcbook-tablature 
% abcbook-transpose 
% abcbook-lastupdated 1654178440178
% abcbook-soundfonts 
% abcbook-repeats 1


